assets/icons/rotate.svg

<svg width="25" height="25" viewBox="0 0 25 25" fill="none" xmlns="http://www.w3.org/2000/svg">
<g id="rotate">
<path id="iconDefault" fill-rule="evenodd" clip-rule="evenodd" d="M12.5 3.95837C7.78258 3.95837 3.95834 7.78261 3.95834 12.5C3.95834 17.2175 7.78258 21.0417 12.5 21.0417C17.2174 21.0417 21.0417 17.2175 21.0417 12.5C21.0417 12.1549 21.3215 11.875 21.6667 11.875C22.0119 11.875 22.2917 12.1549 22.2917 12.5C22.2917 17.9078 17.9078 22.2917 12.5 22.2917C7.09222 22.2917 2.70834 17.9078 2.70834 12.5C2.70834 7.09225 7.09222 2.70837 12.5 2.70837C15.5349 2.70837 18.2466 4.08918 20.0422 6.25537V3.33337C20.0422 2.9882 20.322 2.70837 20.6672 2.70837C21.0123 2.70837 21.2922 2.9882 21.2922 3.33337V8.33337C21.2922 8.67855 21.0123 8.95837 20.6672 8.95837H16.6667C16.3215 8.95837 16.0417 8.67855 16.0417 8.33337C16.0417 7.9882 16.3215 7.70837 16.6667 7.70837H19.5722C18.0352 5.44434 15.4407 3.95837 12.5 3.95837Z" fill="#18303F"/>
</g>
</svg>

<svg width="25" height="25" viewBox="0 0 25 25" fill="none"><g id="rotate"><path id="iconDefault" fill-rule="evenodd" clip-rule="evenodd" d="M12.5 3.958a8.542 8.542 0 1 0 8.542 8.542.625.625 0 0 1 1.25 0c0 5.408-4.384 9.792-9.792 9.792-5.408 0-9.792-4.384-9.792-9.792 0-5.408 4.384-9.792 9.792-9.792a9.772 9.772 0 0 1 7.542 3.547V3.333a.625.625 0 1 1 1.25 0v5c0 .346-.28.625-.625.625h-4a.625.625 0 1 1 0-1.25h2.905a8.533 8.533 0 0 0-7.072-3.75Z" fill="#18303F"/></g></svg>
